assets/img/icons/s-facebook.svg

<svg width="25" height="25" viewBox="0 0 25 25" fill="none" xmlns="http://www.w3.org/2000/svg">
<path fill-rule="evenodd" clip-rule="evenodd" d="M0 12.5C0 5.59644 5.59644 0 12.5 0C19.4036 0 25 5.59644 25 12.5C25 19.4036 19.4036 25 12.5 25C5.59644 25 0 19.4036 0 12.5Z" fill="#6FA2A7"/>
<path fill-rule="evenodd" clip-rule="evenodd" d="M13.8031 19.8497V13.0491H15.6803L15.9291 10.7055H13.8031L13.8062 9.53256C13.8062 8.92132 13.8643 8.59381 14.7422 8.59381H15.9158V6.25H14.0383C11.783 6.25 10.9893 7.38687 10.9893 9.29873V10.7058H9.5835V13.0493H10.9893V19.8497H13.8031Z" fill="white"/>
</svg>

<svg width="25" height="25" fill="none" xmlns="http://www.w3.org/2000/svg"><path fill-rule="evenodd" clip-rule="evenodd" d="M0 12.5C0 5.596 5.596 0 12.5 0S25 5.596 25 12.5 19.404 25 12.5 25 0 19.404 0 12.5Z" fill="#6FA2A7"/><path fill-rule="evenodd" clip-rule="evenodd" d="M13.803 19.85v-6.8h1.877l.25-2.345h-2.127l.003-1.172c0-.612.058-.94.936-.94h1.174V6.25h-1.878c-2.255 0-3.049 1.137-3.049 3.049v1.407H9.584v2.343h1.405v6.8h2.814Z" fill="#fff"/></svg>
